assets/icons/bell.svg

<?xml version="1.0" encoding="UTF-8" standalone="no"?>
<svg viewBox="0 0 24 24" height="24" id="svg7384" version="1.1" width="24" sodipodi:docname="notification.svg" inkscape:version="1.1 (ce6663b3b7, 2021-05-25)"
   xmlns:inkscape="http://www.inkscape.org/namespaces/inkscape"
   xmlns:sodipodi="http://sodipodi.sourceforge.net/DTD/sodipodi-0.dtd"
   xmlns="http://www.w3.org/2000/svg"
   xmlns:svg="http://www.w3.org/2000/svg"
   xmlns:rdf="http://www.w3.org/1999/02/22-rdf-syntax-ns#"
   xmlns:cc="http://creativecommons.org/ns#"
   xmlns:dc="http://purl.org/dc/elements/1.1/">
   <sodipodi:namedview id="namedview23" pagecolor="#ffffff" bordercolor="#666666" borderopacity="1.0" inkscape:pageshadow="2" inkscape:pageopacity="0.0" inkscape:pagecheckerboard="0" showgrid="true" inkscape:snap-page="true" inkscape:zoom="19.79899" inkscape:cx="27.804449" inkscape:cy="8.7630733" inkscape:window-width="1920" inkscape:window-height="1016" inkscape:window-x="0" inkscape:window-y="27" inkscape:window-maximized="1" inkscape:current-layer="svg7384">
      <inkscape:grid type="xygrid" id="grid24" />
   </sodipodi:namedview>
   <metadata id="metadata20854">
      <rdf:RDF>
         <cc:Work rdf:about="">
            <dc:format>image/svg+xml</dc:format>
            <dc:type rdf:resource="http://purl.org/dc/dcmitype/StillImage" />
         </cc:Work>
      </rdf:RDF>
   </metadata>
   <defs id="defs7386">
      <linearGradient id="linearGradient5606" inkscape:swatch="solid">
         <stop id="stop5608" offset="0" style="stop-color:#000000;stop-opacity:1;" />
      </linearGradient>
      <linearGradient id="linearGradient4526" inkscape:swatch="solid">
         <stop id="stop4528" offset="0" style="stop-color:#ffffff;stop-opacity:1;" />
      </linearGradient>
      <linearGradient id="linearGradient3600-4" inkscape:swatch="gradient">
         <stop id="stop3602-7" offset="0" style="stop-color:#f4f4f4;stop-opacity:1" />
         <stop id="stop3604-6" offset="1" style="stop-color:#dbdbdb;stop-opacity:1" />
      </linearGradient>
   </defs>
   <path id="path48" style="fill:#808080;fill-rule:evenodd;stroke-width:2;stroke-linecap:square;stroke-linejoin:round" d="M 9 18 A 3 3 0 0 0 12 21 A 3 3 0 0 0 15 18 L 9 18 z " />
   <path id="rect75" style="fill:#808080;fill-rule:evenodd;stroke-width:2;stroke-linecap:square;stroke-linejoin:round" d="m 12,2.5 c -0.828427,0 -1.5,0.6715729 -1.5,1.5 3.04e-4,0.060077 0.0042,0.1200804 0.01172,0.1796875 -2.0343935,0.5069032 -3.511719,2.0259281 -3.511719,3.8203125 v 6.5 c 0,1.385 -1.115,2.5 -2.5,2.5 h 15 c -1.385,0 -2.5,-1.115 -2.5,-2.5 v -6.5 c 0,-1.7943844 -1.477325,-3.3134093 -3.511719,-3.8203125 0.0075,-0.059607 0.01141,-0.119611 0.01172,-0.1796875 0,-0.8284271 -0.671573,-1.5 -1.5,-1.5 z m 0,2.5 c 2.209139,0 4,1 4,3 v 8 h -8 v -8 c 0,-2 1.790861,-3 4,-3 z" sodipodi:nodetypes="sccssccssccsssccss" />
   <g id="layer9" label="status" style="display:inline;stroke-width:0.8" transform="matrix(1.25,0,0,1.25,-1014.2503,260.75)" />
   <g id="layer2" style="display:inline;stroke-width:0.8" transform="matrix(1.25,0,0,1.25,-713.00005,-198)" />
   <g id="layer4" style="display:inline;stroke-width:0.8" transform="matrix(1.25,0,0,1.25,-713.00005,-198)" />
   <g id="g1812" style="display:inline;stroke-width:0.8" transform="matrix(1.25,0,0,1.25,-713.00005,-198)" />
   <g id="g6217" style="display:inline;stroke-width:0.8" transform="matrix(1.25,0,0,1.25,-713.00005,-198)" />
   <g id="layer3" style="display:inline;stroke-width:0.8" transform="matrix(1.25,0,0,1.25,-713.00005,-198)" />
   <g id="layer1" style="display:inline;stroke-width:0.8" transform="matrix(1.25,0,0,1.25,-713.00005,-198)" />
</svg>

<svg height="24" width="24" xmlns="http://www.w3.org/2000/svg"><path style="fill:gray;stroke-width:2;stroke-linecap:square;stroke-linejoin:round" d="M9 18a3 3 0 0 0 3 3 3 3 0 0 0 3-3H9zm3-15.5a1.5 1.5 0 0 0-1.488 1.68C8.477 4.687 7 6.206 7 8v6.5C7 15.885 5.885 17 4.5 17h15a2.495 2.495 0 0 1-2.5-2.5V8c0-1.794-1.477-3.313-3.512-3.82A1.5 1.5 0 0 0 12 2.5zM12 5c2.21 0 4 1 4 3v8H8V8c0-2 1.79-3 4-3z"/></svg>
